fs/chat_warning_24_regular.svg

<svg viewBox="0 0 24 24" fill="none" xmlns="http://www.w3.org/2000/svg" height="1em" width="1em">
  <path d="M12 6.5C12.4142 6.5 12.75 6.83579 12.75 7.25V13.5C12.75 13.9142 12.4142 14.25 12 14.25C11.5858 14.25 11.25 13.9142 11.25 13.5V7.25C11.25 6.83579 11.5858 6.5 12 6.5ZM12 17.4978C12.5523 17.4978 13 17.0501 13 16.4978C13 15.9455 12.5523 15.4978 12 15.4978C11.4477 15.4978 11 15.9455 11 16.4978C11 17.0501 11.4477 17.4978 12 17.4978ZM12 2C17.5228 2 22 6.47715 22 12C22 17.5228 17.5228 22 12 22C10.3817 22 8.81782 21.6146 7.41286 20.888L3.58704 21.9553C2.92212 22.141 2.23258 21.7525 2.04691 21.0876C1.98546 20.8676 1.98549 20.6349 2.04695 20.4151L3.11461 16.5922C2.38637 15.186 2 13.6203 2 12C2 6.47715 6.47715 2 12 2ZM12 3.5C7.30558 3.5 3.5 7.30558 3.5 12C3.5 13.4696 3.87277 14.8834 4.57303 16.1375L4.72368 16.4072L3.61096 20.3914L7.59755 19.2792L7.86709 19.4295C9.12006 20.1281 10.5322 20.5 12 20.5C16.6944 20.5 20.5 16.6944 20.5 12C20.5 7.30558 16.6944 3.5 12 3.5Z" fill="#212121"/>
</svg>

<svg viewBox="0 0 24 24" fill="none" xmlns="http://www.w3.org/2000/svg" height="1em" width="1em">
  <path d="M12 6.5a.75.75 0 0 1 .75.75v6.25a.75.75 0 0 1-1.5 0V7.25A.75.75 0 0 1 12 6.5Zm0 10.998a1 1 0 1 0 0-2 1 1 0 0 0 0 2ZM12 2c5.523 0 10 4.477 10 10s-4.477 10-10 10a9.96 9.96 0 0 1-4.587-1.112l-3.826 1.067a1.25 1.25 0 0 1-1.54-1.54l1.068-3.823A9.96 9.96 0 0 1 2 12C2 6.477 6.477 2 12 2Zm0 1.5A8.5 8.5 0 0 0 3.5 12c0 1.47.373 2.883 1.073 4.137l.15.27-1.112 3.984 3.987-1.112.27.15A8.5 8.5 0 1 0 12 3.5Z" fill="#212121"/>
</svg>
